!!!OTL: Chunji zhaicha chaye xin
!!!ARE: Asia, China,ÿGuangxi, Yulin
!! II, 520(2)
!!!SCT: C1525
!!!YEM: Copyright 1995, estate of Helmut Schaffrath.
**kern
*ICvox
*Ivox
*M2/4
*k[f#c#]
*D:
{8d
8e
8f#
16f#
16e
=1
8d
16e
16f#
8d
8e
=2
8f#
8e
8f#
8a
=3
8e
8f#
16e
16f#
16e
16d
=4
8B
8B
16B
16d
16e
16f#
=5
16d
16e
8B
4d}
=6
{8.a
16b
8a
8d
=7
2e
=8
8.a
16b
8a
8d
=9
2e}
=10
{8.e
16f#
4a
=11
8f#
8a
16f#
16a
16f#
16e
=12
8.d
16e
16f#
16e
16f#
16a
=13
2e}
=14
{8B
8f#
16e
16f#
8B
=15
2d
=16
8d
16B
16d
16e
16f#
16e
16d
=17
8B
8B
16B
16d
8A
=18
2B}
==
!!!AGN: Wuge, Caicha, Zhicha diao
!!!AMT: simple duple
!!!AIN: vox
!!!EED: Helmut Schaffrath
!!!EEV: 1.0
*-
